assets/icons/qvision/wash.svg

<svg xmlns="http://www.w3.org/2000/svg" enable-background="new 0 0 24 24" height="24" viewBox="0 0 24 24" width="24"><g><rect fill="none" height="24" width="24"/><path d="M18.5,8C19.88,8,21,6.88,21,5.5C21,3.83,18.5,1,18.5,1S16,3.83,16,5.5C16,6.88,17.12,8,18.5,8z M13.5,9 C14.33,9,15,8.33,15,7.5C15,6.66,13.5,5,13.5,5S12,6.66,12,7.5C12,8.33,12.67,9,13.5,9z M9.12,5l-7.18,6.79 C1.34,12.35,1,13.14,1,13.97V20c0,1.66,1.34,3,3,3h6.25H12h5.75c0.69,0,1.25-0.56,1.25-1.25s-0.56-1.25-1.25-1.25H12v-1h7.75 c0.69,0,1.25-0.56,1.25-1.25S20.44,17,19.75,17H12v-1h8.75c0.69,0,1.25-0.56,1.25-1.25s-0.56-1.25-1.25-1.25H12v-1h6.75 c0.69,0,1.25-0.56,1.25-1.25S19.44,10,18.75,10H8.86c0.64-1.11,1.48-2.58,1.49-2.61c0.09-0.16,0.14-0.33,0.14-0.53 c0-0.26-0.09-0.5-0.26-0.7C10.22,6.12,9.12,5,9.12,5L9.12,5z"/></g></svg>

<svg width="24" height="24" viewBox="0 0 24 24" fill="none" xmlns="http://www.w3.org/2000/svg">
<g clip-path="url(#clip0_147_6331)">
<path d="M18.5 8C19.88 8 21 6.88 21 5.5C21 3.83 18.5 1 18.5 1C18.5 1 16 3.83 16 5.5C16 6.88 17.12 8 18.5 8ZM13.5 9C14.33 9 15 8.33 15 7.5C15 6.66 13.5 5 13.5 5C13.5 5 12 6.66 12 7.5C12 8.33 12.67 9 13.5 9ZM9.12 5L1.94 11.79C1.34 12.35 1 13.14 1 13.97V20C1 21.66 2.34 23 4 23H10.25H12H17.75C18.44 23 19 22.44 19 21.75C19 21.06 18.44 20.5 17.75 20.5H12V19.5H19.75C20.44 19.5 21 18.94 21 18.25C21 17.56 20.44 17 19.75 17H12V16H20.75C21.44 16 22 15.44 22 14.75C22 14.06 21.44 13.5 20.75 13.5H12V12.5H18.75C19.44 12.5 20 11.94 20 11.25C20 10.56 19.44 10 18.75 10H8.86C9.5 8.89 10.34 7.42 10.35 7.39C10.44 7.23 10.49 7.06 10.49 6.86C10.49 6.6 10.4 6.36 10.23 6.16C10.22 6.12 9.12 5 9.12 5Z" fill="#323232"/>
</g>
<defs>
<clipPath id="clip0_147_6331">
<rect width="24" height="24" fill="white"/>
</clipPath>
</defs>
</svg>
